Obsidian-SemiLight/actions/16s/view-form.svg

<svg viewBox="0 0 16 16" xmlns="http://www.w3.org/2000/svg"><path d="m2 2v3 9h1 5 5 1v-1-5-6h-11zm6.6875.5 1.65625 1.09375 1.65625-1.09375.6875.4375-2 1.3125-.34375.25-.34375-.25-2-1.3125zm-5.6875 2.5h10v3 5h-5-5zm1 1v2 2 2h2 1v-1-1-2-1-1h-1zm4 1v1h4v-1zm0 3v1h4v-1z" fill="#4d4d4d"/></svg>

<svg xmlns="http://www.w3.org/2000/svg" viewBox="0 0 16 16">
  <defs id="defs3051">
    <style type="text/css" id="current-color-scheme">
      .ColorScheme-Text {
        color:#4d4d4d;
      }
      </style>
  </defs>
 <path style="fill:currentColor;fill-opacity:1;stroke:none" 
       d="M 2 2 L 2 5 L 2 14 L 3 14 L 8 14 L 13 14 L 14 14 L 14 13 L 14 8 L 14 2 L 3 2 L 2 2 z M 8.6875 2.5 L 10.34375 3.59375 L 12 2.5 L 12.6875 2.9375 L 10.6875 4.25 L 10.34375 4.5 L 10 4.25 L 8 2.9375 L 8.6875 2.5 z M 3 5 L 13 5 L 13 8 L 13 13 L 8 13 L 3 13 L 3 5 z M 4 6 L 4 8 L 4 10 L 4 12 L 6 12 L 7 12 L 7 11 L 7 10 L 7 8 L 7 7 L 7 6 L 6 6 L 4 6 z M 8 7 L 8 8 L 12 8 L 12 7 L 8 7 z M 8 10 L 8 11 L 12 11 L 12 10 L 8 10 z "
     class="ColorScheme-Text"
     />
</svg>
